usr/share/icons/biglinux-icons-material/22/actions/love-amarok.svg

<svg xmlns="http://www.w3.org/2000/svg" viewBox="0 0 22 22">
  <defs id="defs3051">
    <style type="text/css" id="current-color-scheme">
      .ColorScheme-Text {
        color:#363636;
      }
      </style>
  </defs>
 <path 
     style="fill:currentColor;fill-opacity:1;stroke:none" 
     d="M 7 3 C 4.23858 3 2 5.23858 2 8 C 2 13 9 17 11 19 C 13 17 20 13 20 8 C 20 5.23858 17.76142 3 15 3 C 13.36041 3 11.91181 3.78077 11 5 C 10.08819 3.78077 8.6396 3 7 3 z M 7 4 C 8.3221364 4 9.4690059 4.6232029 10.199219 5.5996094 L 11 6.6699219 L 11.800781 5.5996094 C 12.530992 4.6232057 13.677876 4 15 4 C 17.220978 4 19 5.7790218 19 8 C 19 10.033333 17.487537 12.093471 15.566406 13.894531 C 13.902872 15.454095 12.231348 16.625594 11 17.703125 C 9.7686524 16.625594 8.0971281 15.454095 6.4335938 13.894531 C 4.5124626 12.093471 3 10.033333 3 8 C 3 5.7790218 4.7790218 4 7 4 z "
	 class="ColorScheme-Text"
     />
</svg>

<svg xmlns="http://www.w3.org/2000/svg" viewBox="0 0 22 22"><path d="M7 3a5 5 0 0 0-5 5c0 5 7 9 9 11 2-2 9-6 9-11a5 5 0 0 0-5-5c-1.64 0-3.088.78-4 2-.912-1.22-2.36-2-4-2zm0 1a3.96 3.96 0 0 1 3.2 1.6l.8 1.07.8-1.07A3.96 3.96 0 0 1 15 4c2.221 0 4 1.779 4 4 0 2.033-1.512 4.093-3.434 5.895-1.663 1.56-3.335 2.73-4.566 3.808-1.231-1.077-2.903-2.249-4.566-3.808C4.512 12.093 3 10.033 3 8c0-2.221 1.779-4 4-4z" style="fill:currentColor;fill-opacity:1;stroke:none;color:#dedede"/></svg>
